X:140
T:Viola's Favorite Schottische
R:Schottische
S:Ruffwater Fakebook
S:Jim Coon to CoMandoList TOW
M:4/4
L:1/8
Q:1/4=110
K:D
f>e|"D"d2A2A2 g>f|"G"e2B2B2e>d|"A7"c>d c>B A>B A>G|\
"D"F>D F>A "A7"d>e f>e|!
"D"d2A2A2g>f|"G"e2B2B2"Em"e>f|"A7"c>d c>B A>g f>e|"D"d2f2d2||!
f>g|"D"a>b a>f d>a g>f|"G"e2B2B2e>d|"A7"c>d c>B A>B A>G|\
"D"F>D F>A "A7"d>e f>g|!
"D"a>b a>f d>a g>f|"G"e2B2B2e>d|"A7"c>d c>B A>g f>e|"D"d2d2d2|
